src/vs/editor/contrib/suggest/media/Misc_16x.svg

<svg viewBox="0 0 16 16" xmlns="http://www.w3.org/2000/svg"><path d="m16 16h-16v-16h16z" fill="#f6f6f6" opacity="0"/><path d="m16 10c0 2.205-1.794 4-4 4-1.858 0-3.411-1.279-3.858-3h-.978l2.318 4h-9.482v-1.703l2-3.408v-9.889h11v6.142c1.721.447 3 2 3 3.858z" fill="#f6f6f6"/><path d="m12 1v4.75a4.255 4.255 0 0 0 -4.25 4.25h-.732l-2.743-4.731-1.275 2.173v-6.442zm-4.253 13-3.478-6-3.521 6zm7.253-4a3 3 0 1 1 -6 0 3 3 0 0 1 6 0z" fill="#424242"/></svg>

<svg xmlns="http://www.w3.org/2000/svg" viewBox="0 0 16 16"><style>.icon-canvas-transparent{opacity:0;fill:#f6f6f6}.icon-vs-out{fill:#f6f6f6}.icon-vs-bg{fill:#424242}</style><path class="icon-canvas-transparent" d="M16 16H0V0h16v16z" id="canvas"/><path class="icon-vs-out" d="M16 10c0 2.205-1.794 4-4 4-1.858 0-3.411-1.279-3.858-3h-.978l2.318 4H0v-1.703l2-3.408V0h11v6.142c1.721.447 3 2 3 3.858z" id="outline"/><path class="icon-vs-bg" d="M12 1v4.75A4.255 4.255 0 0 0 7.75 10h-.732L4.275 5.269 3 7.442V1h9zM7.747 14L4.269 8 .748 14h6.999zM15 10a3 3 0 1 1-6 0 3 3 0 0 1 6 0z" id="iconBg"/></svg>
